Numix-Light-GalliumOS/16/panel/simplescreenrecorder-paused.svg

<?xml version="1.0" encoding="UTF-8" standalone="no"?>
<svg
   xmlns:dc="http://purl.org/dc/elements/1.1/"
   xmlns:cc="http://creativecommons.org/ns#"
   xmlns:rdf="http://www.w3.org/1999/02/22-rdf-syntax-ns#"
   xmlns:svg="http://www.w3.org/2000/svg"
   xmlns="http://www.w3.org/2000/svg"
   xmlns:sodipodi="http://sodipodi.sourceforge.net/DTD/sodipodi-0.dtd"
   xmlns:inkscape="http://www.inkscape.org/namespaces/inkscape"
   width="16"
   height="16"
   viewBox="0 0 16 16"
   id="svg2"
   version="1.1"
   inkscape:version="0.91 r"
   sodipodi:docname="simplescreenrecorder-paused.svg">
  <metadata
     id="metadata32">
    <rdf:RDF>
      <cc:Work
         rdf:about="">
        <dc:format>image/svg+xml</dc:format>
        <dc:type
           rdf:resource="http://purl.org/dc/dcmitype/StillImage" />
      </cc:Work>
    </rdf:RDF>
  </metadata>
  <sodipodi:namedview
     pagecolor="#ffffff"
     bordercolor="#666666"
     borderopacity="1"
     objecttolerance="10"
     gridtolerance="10"
     guidetolerance="10"
     inkscape:pageopacity="0"
     inkscape:pageshadow="2"
     inkscape:window-width="1280"
     inkscape:window-height="998"
     id="namedview30"
     showgrid="true"
     inkscape:zoom="20.85965"
     inkscape:cx="15.611217"
     inkscape:cy="2.0625874"
     inkscape:window-x="0"
     inkscape:window-y="0"
     inkscape:window-maximized="1"
     inkscape:current-layer="svg2">
    <inkscape:grid
       type="xygrid"
       id="grid3044" />
  </sodipodi:namedview>
  <defs
     id="defs4" />
  <path
     style="fill:#353535;fill-opacity:1"
     inkscape:connector-curvature="0"
     id="path26"
     d="m 13.332031,3.972656 c 0.535157,0 0.992188,0.175782 1.371094,0.523438 0.378906,0.351562 0.570313,0.773437 0.570313,1.265625 l 0,6.265625 c 0,0.496094 -0.191407,0.917968 -0.570313,1.265625 -0.378906,0.351562 -0.835937,0.523437 -1.371094,0.523437 l -10.664062,0 c -0.535157,0 -0.992188,-0.171875 -1.371094,-0.523437 C 0.917969,12.945312 0.726562,12.523438 0.726562,12.027344 l 0,-6.265625 c 0,-0.492188 0.191407,-0.914063 0.570313,-1.265625 C 1.675781,4.148438 2.132812,3.972656 2.667969,3.972656 l 1.695312,0 L 4.75,3.019531 C 4.847656,2.792969 5.019531,2.59375 5.277344,2.429688 5.53125,2.265625 5.792969,2.183594 6.0625,2.183594 l 3.875,0 c 0.269531,0 0.53125,0.082031 0.785156,0.246094 0.253906,0.164062 0.429688,0.363281 0.527344,0.589843 l 0.386719,0.953125 z M 8,12.027344 c 0.933594,0 1.734375,-0.304688 2.398438,-0.917969 0.664062,-0.613281 0.996093,-1.351563 0.996093,-2.214844 0,-0.863281 -0.332031,-1.601562 -0.996093,-2.210937 C 9.734375,6.070312 8.933594,5.761719 8,5.761719 7.066406,5.761719 6.265625,6.070312 5.601562,6.683594 4.9375,7.292969 4.605469,8.03125 4.605469,8.894531 c 0,0.863281 0.332031,1.601563 0.996093,2.214844 C 6.265625,11.722656 7.066406,12.027344 8,12.027344 z" />
  <rect
     style="fill:#353535;fill-opacity:1;fill-rule:evenodd;stroke:none"
     id="rect3050"
     width="1.5"
     height="4"
     x="6"
     y="7"
     ry="0.77523112" />
  <rect
     style="fill:#353535;fill-opacity:1;fill-rule:evenodd;stroke:none"
     id="rect3052"
     width="1.5"
     height="4"
     x="8.5"
     y="7"
     ry="0.76934415" />
</svg>

<svg xmlns="http://www.w3.org/2000/svg" viewBox="0 0 16 16">
 <path d="m 13.332 3.973 c 0.535 0 0.992 0.176 1.371 0.523 0.379 0.352 0.57 0.773 0.57 1.266 l 0 6.266 c 0 0.496 -0.191 0.918 -0.57 1.266 -0.379 0.352 -0.836 0.523 -1.371 0.523 l -10.664 0 c -0.535 0 -0.992 -0.172 -1.371 -0.523 c -0.379 -0.348 -0.57 -0.77 -0.57 -1.266 l 0 -6.266 c 0 -0.492 0.191 -0.914 0.57 -1.266 c 0.379 -0.348 0.836 -0.523 1.371 -0.523 l 1.695 0 l 0.387 -0.953 c 0.098 -0.227 0.27 -0.426 0.527 -0.59 0.254 -0.164 0.516 -0.246 0.785 -0.246 l 3.875 0 c 0.27 0 0.531 0.082 0.785 0.246 0.254 0.164 0.43 0.363 0.527 0.59 l 0.387 0.953 z m -5.332 8.05 c 0.934 0 1.734 -0.305 2.398 -0.918 0.664 -0.613 0.996 -1.352 0.996 -2.215 0 -0.863 -0.332 -1.602 -0.996 -2.211 c -0.664 -0.613 -1.465 -0.922 -2.398 -0.922 -0.934 0 -1.734 0.309 -2.398 0.922 -0.664 0.609 -0.996 1.348 -0.996 2.211 c 0 0.863 0.332 1.602 0.996 2.215 c 0.664 0.613 1.465 0.918 2.398 0.918 z" style="fill:#353535;fill-opacity:1"/>
 <rect width="1.5" height="4" x="6" y="7" ry="0.775" rx="0.75" style="fill:#353535;fill-opacity:1;stroke:none;fill-rule:evenodd"/>
 <rect width="1.5" height="4" x="8.5" y="7" ry="0.769" rx="0.75" style="fill:#353535;fill-opacity:1;stroke:none;fill-rule:evenodd"/>
</svg>
